X: 7959
T: Confused Whistler, The
R: jig
M: 6/8
K: Dminor
A|:d2f B2F|B2A d2a|f2a b3|a^ga fef|
d^cd A^GA|D^CD A^GA|d^cd fef|1 d3 dc/B/A:|2 d3 de/f/g||
|:~a3 ~g3|~f3 edc|edc Ade|d3 de/f/g|
~a3 ~g3|~f3 edc|edc Ade|1 d3 de/f/g:|2 d3 _e3||
|:d/d/d2 c/c/c2|B/B/B2 AGA|D3 d^cd|fef d3|
d/d/d2 c/c/c2|B/B/B2 AGA|D2 B/c/d2 ^c|1 d3 _e3:|2 d3 dc/B/A||

